(Exported by FreeCAD)
(Post Processor: linuxcnc_post)
(Output Time:2026-05-06 04:59:14.271752)
(begin preamble)
G17 G54 G40 G49 G80 G90
G21
(begin operation: Fixture)
(machine units: mm/min)
G54 
(finish operation: Fixture)
(begin operation: TC: 45 Deg. V-Bit)
(machine units: mm/min)
(TC: 45 Deg. V-Bit) 
M5
M6 T2 
G43 H2 
(finish operation: TC: 45 Deg. V-Bit)
(begin operation: Profile)
(machine units: mm/min)
(Profile) 
(Compensated Tool Path. Diameter: 10.0) 
G0 Z6.000 
G0 X65.000 Y65.000 
G0 Z4.000 
G1 X65.000 Y65.000 Z-0.100 
G1 X65.000 Y15.000 Z-0.100 
G1 X15.000 Y15.000 Z-0.100 
G1 X15.000 Y65.000 Z-0.100 
G1 X65.000 Y65.000 Z-0.100 
G0 Z6.000 
G0 Z6.000 
(finish operation: Profile)
(begin postamble)
M05
G17 G54 G90 G80 G40
M2
